X: 32731
T: Polly Put The Kettle On
R: strathspey
M: 4/4
K: Gmajor
|:(3ABc|d2 d>c B<G G2|cE (3BAG F<D D2|d>G (3edc B>G (3Bcd|E2 F2 G2:|
|:D>G|B>Gc>A B<GD>G|c>EA>G F<D (3DDD|1 B2 (3cBA B>G (3Bcd|E>A (3FED G2:|
[2 B>d (3cde B>g (3Bcd|e>cA<F G2||

